X: 1
T:The Honble Charles Bruce's Reel
M:C
Z: source from Highland Music Trust, chords by Gary Whaley
L:1/8
C: Miss Magdelina Stirling Collection
K:Bb
d[|:"Bb"BFDF "Eb"GB"Bb"FB|"Eb"EB"Bb"DB "F"C/C/CCF |"Bb"BFDF Bdfd |"F"TcBcd "Bb"B/B/BB :|]
d[|"Bb" B/B/BdB fBbd|Bdfd "F"Tc>Bcd|"Bb"B/B/BdB fBbd |"F"Tc>Bcd "Bb"B/B/BBd |
"Bb"B/B/BdB fBbd |Bdfd "F"Tc>Bcd |"Eb"BG"Bb"FD "F"TFG"Eb"Bg|"Bb"fd"F"cd "Bb"B/B/BB |]

